packages/foundations/assets/icons/functional/images/notification/question_mark_circle_28_filled.svg

<svg width="28" height="28" viewBox="0 0 28 28" fill="none" xmlns="http://www.w3.org/2000/svg">
<g clip-path="url(#clip0_2214_8102)">
<path fill-rule="evenodd" clip-rule="evenodd" d="M14 1.75C20.755 1.75 26.25 7.245 26.25 14C26.25 20.755 20.755 26.25 14 26.25C7.245 26.25 1.75 20.755 1.75 14C1.75 7.245 7.245 1.75 14 1.75ZM13.5846 17.9375C12.9196 17.9375 12.3814 18.4765 12.3814 19.1406C12.3814 19.8039 12.9196 20.3429 13.5846 20.3429C14.2478 20.3429 14.7868 19.8039 14.7868 19.1406C14.7868 18.4765 14.2478 17.9375 13.5846 17.9375ZM14.3257 7.4375C12.9913 7.4375 11.1564 7.70612 11.1564 8.74037C11.1564 9.2155 11.5484 9.61275 12.0297 9.61275C12.8443 9.61275 13.0333 9.184 14.3257 9.184C15.0887 9.184 15.8596 9.59 15.8596 10.4965C15.8596 12.9596 12.6815 12.3935 12.6815 15.3711C12.6815 15.8541 13.0727 16.2444 13.5548 16.2444C14.0369 16.2444 14.428 15.8541 14.428 15.3711C14.428 13.6246 17.6052 13.9484 17.6052 10.4965C17.6052 8.75175 16.1955 7.4375 14.3257 7.4375Z" fill="#1A1C1F"/>
</g>
<defs>
<clipPath id="clip0_2214_8102">
<rect width="28" height="28" fill="white"/>
</clipPath>
</defs>
</svg>

<svg xmlns="http://www.w3.org/2000/svg" width="28" height="28" fill="none"><g clip-path="url(#a)"><path fill="#1A1C1F" fill-rule="evenodd" d="M14 1.75c6.755 0 12.25 5.495 12.25 12.25S20.755 26.25 14 26.25 1.75 20.755 1.75 14 7.245 1.75 14 1.75m-.415 16.188a1.203 1.203 0 1 0 0 2.406 1.203 1.203 0 0 0 0-2.407m.74-10.5c-1.334 0-3.169.268-3.169 1.302 0 .476.392.873.874.873.814 0 1.003-.429 2.296-.429.763 0 1.534.406 1.534 1.313 0 2.463-3.178 1.896-3.178 4.874a.873.873 0 1 0 1.746 0c0-1.746 3.177-1.423 3.177-4.875 0-1.744-1.41-3.059-3.28-3.059" clip-rule="evenodd"/></g><defs><clipPath id="a"><path fill="#fff" d="M0 0h28v28H0z"/></clipPath></defs></svg>
